svg/blazor.svg

<svg viewBox="0 0 20 20" xmlns="http://www.w3.org/2000/svg">
<rect width="100%" height="100%" fill="#5C2D91"/>
<path d="M1.51574 10.1206C1.50788 10.153 1.5 10.1855 1.5 10.2173V11.1118C1.50263 11.1235 1.50405 11.1355 1.50425 11.1476C1.51278 11.2209 1.51989 11.2954 1.527 11.37C1.54112 11.518 1.55527 11.6664 1.58069 11.8063C1.78863 13.1462 2.43737 14.3803 3.42605 15.317C3.99199 15.8535 4.65962 16.2734 5.39032 16.5525C6.23573 16.8742 7.13749 17.0252 8.04262 16.9966C8.63125 16.9892 9.21841 16.9364 9.79878 16.8387C11.1034 16.6232 12.3394 16.1094 13.4088 15.3381C13.8541 15.0135 14.2685 14.6493 14.6468 14.2499C14.6655 14.2229 14.6811 14.194 14.6935 14.1636H14.6532C14.6235 14.1805 14.5937 14.1973 14.5661 14.2162C13.781 14.7125 12.9354 15.1078 12.0497 15.3928C11.1637 15.6773 10.2459 15.8533 9.31674 15.9169C8.56283 15.9812 7.80374 15.9515 7.0573 15.8285C5.83205 15.6308 4.71626 15.0115 3.90597 14.0794C3.37398 13.49 2.99011 12.7843 2.78567 12.0198C2.58122 11.2553 2.56198 10.4538 2.72953 9.68058C2.93026 8.61526 3.47331 7.64288 4.27759 6.90867C5.18019 6.04677 6.3699 5.54216 7.62216 5.49009C8.55164 5.4363 9.47811 5.63728 10.2999 6.07099C11.2969 6.58415 12.0998 7.40287 12.5891 8.40512C12.8582 8.95899 13.0312 9.55383 13.1009 10.1647C13.1678 10.5618 13.1678 10.9672 13.1009 11.3644C13.0189 11.8142 12.8012 12.2288 12.4766 12.5535C12.2742 12.7579 12.0244 12.91 11.7489 12.9966C11.4735 13.0832 11.1809 13.1016 10.8967 13.0502C10.4445 12.995 10.0314 12.7688 9.74357 12.4188L9.62465 12.2589C9.614 12.2719 9.60462 12.2845 9.59564 12.2967C9.58135 12.316 9.5681 12.3339 9.55245 12.3494C9.25384 12.6836 8.86966 12.9316 8.44054 13.0672C8.01142 13.2028 7.5533 13.2209 7.11463 13.1197C6.49011 12.9847 5.93823 12.625 5.56561 12.1103C5.19299 11.5955 5.02607 10.9621 5.09709 10.3325C5.16811 9.70287 5.47204 9.12168 5.95016 8.70118C6.42829 8.28069 7.04667 8.05073 7.68586 8.05574H9.12562C9.27332 8.05166 9.42031 8.07753 9.55757 8.13175C9.69483 8.18597 9.81948 8.2674 9.92386 8.37106C10.0282 8.47471 10.1102 8.59841 10.1646 8.73455C10.2191 8.8707 10.2449 9.01644 10.2405 9.16282V10.8634C10.2401 11.0049 10.255 11.1461 10.2851 11.2844C10.3113 11.4165 10.3672 11.5411 10.4487 11.6488C10.5302 11.7566 10.6351 11.8448 10.7557 11.9069C10.8762 11.9689 11.0093 12.0033 11.1451 12.0074C11.2809 12.0115 11.4159 11.9852 11.5401 11.9305C11.6662 11.8686 11.7771 11.7799 11.8648 11.6708C11.9525 11.5617 12.0149 11.4348 12.0476 11.2991C12.1397 10.9558 12.1557 10.5968 12.0943 10.2468C11.9812 9.24826 11.5012 8.32597 10.7459 7.65585C10.2902 7.22855 9.7412 6.91127 9.14156 6.72874C8.54192 6.54621 7.90785 6.50334 7.28876 6.60349C6.73855 6.6737 6.20906 6.85645 5.73384 7.14014C5.25863 7.42382 4.84806 7.80227 4.52816 8.25148C3.88046 9.08823 3.59247 10.1447 3.7269 11.1909C3.86133 12.2371 4.40729 13.1883 5.24592 13.8374C5.95434 14.4254 6.83041 14.7793 7.75169 14.8498C8.16578 14.8729 8.5735 14.8729 8.99821 14.8729C9.72306 14.8605 10.4435 14.7587 11.143 14.5698C13.1059 14.0644 14.8635 12.9706 16.1758 11.438C17.0108 10.505 17.6444 9.41262 18.0377 8.22795C18.431 7.04329 18.5757 5.79141 18.4628 4.54928C18.3981 3.60663 18.134 2.68802 17.6877 1.85314C17.6852 1.84856 17.6827 1.84386 17.6802 1.83911C17.6548 1.79146 17.6267 1.73872 17.5688 1.75212C17.5168 1.76908 17.4735 1.80527 17.4478 1.85314C17.372 1.97107 17.3013 2.09117 17.2307 2.21096C17.1627 2.32636 17.0949 2.44145 17.0231 2.55401C16.6407 3.18349 16.1439 3.73726 15.5578 4.18727C14.879 4.67448 14.1119 5.02749 13.2984 5.227C13.2817 5.22999 13.2646 5.22908 13.2484 5.22432C13.2321 5.21957 13.2173 5.21112 13.2049 5.19964C13.1837 5.1828 13.1922 5.1344 13.2049 5.10914C13.2425 5.04108 13.2811 4.97373 13.3198 4.90638C13.3972 4.77168 13.4746 4.63698 13.5426 4.49667C13.818 3.9302 13.9919 3.32057 14.0565 2.69503C14.0571 2.68989 14.0578 2.68458 14.0586 2.67917C14.0654 2.62925 14.0734 2.57049 14.014 2.5477C13.9602 2.52704 13.9305 2.55849 13.9005 2.5902C13.8938 2.59726 13.8872 2.60433 13.8802 2.61084C13.8207 2.6658 13.7622 2.72186 13.7038 2.77788C13.581 2.89563 13.4584 3.01322 13.326 3.12018C12.3985 3.8877 11.2398 4.32754 10.0324 4.37038C9.61615 4.38541 9.19928 4.38266 8.78248 4.37992C8.44013 4.37767 8.09782 4.37542 7.75594 4.38301C7.38853 4.38886 7.02215 4.42335 6.66019 4.48614C5.38165 4.71001 4.20851 5.33231 3.31138 6.26252C2.29907 7.28709 1.67045 8.62379 1.52973 10.051C1.52706 10.0739 1.52141 10.0972 1.51574 10.1206Z" fill="white"/>
<path d="M9.21056 10.7245V9.94157H9.21693V9.23439C9.21693 9.12284 9.18083 9.08916 9.06829 9.08916H7.65826C7.35736 9.09107 7.06357 9.17997 6.8129 9.34496C6.56224 9.50994 6.3656 9.74385 6.24711 10.018C6.12862 10.2921 6.09342 10.5946 6.14583 10.8883C6.19824 11.1819 6.33599 11.4541 6.54217 11.6713C6.74836 11.8885 7.01402 12.0414 7.30657 12.1111C7.59913 12.1809 7.90587 12.1645 8.18916 12.064C8.47246 11.9634 8.72001 11.7832 8.90144 11.5452C9.08287 11.3073 9.1903 11.0221 9.21056 10.7245Z" fill="white"/>
</svg>

<svg xmlns="http://www.w3.org/2000/svg" viewBox="0 0 20 20">
  <rect width="100%" height="100%" fill="#5C2D91"/>
  <path fill="#fff" d="m1.52 10.12-.02.1v.93l.03.22.05.44A6.13 6.13 0 0 0 8.04 17c.6-.01 1.18-.06 1.76-.16a8.55 8.55 0 0 0 4.9-2.68h-.05l-.08.06a11.04 11.04 0 0 1-5.25 1.7c-.76.06-1.52.03-2.26-.1a5.3 5.3 0 0 1-4.27-3.8 4.97 4.97 0 0 1-.06-2.34c.2-1.06.74-2.04 1.55-2.77.9-.86 2.09-1.37 3.34-1.42a5.19 5.19 0 0 1 5.48 4.67c.07.4.07.8 0 1.2-.08.45-.3.87-.62 1.2a1.77 1.77 0 0 1-1.58.49 1.77 1.77 0 0 1-1.16-.63l-.12-.16a.9.9 0 0 0-.02.04l-.05.05a2.5 2.5 0 0 1-2.44.77 2.59 2.59 0 0 1-2.01-2.79 2.55 2.55 0 0 1 2.59-2.27h1.44a1.1 1.1 0 0 1 1.03.67c.06.14.08.29.08.43v1.7c0 .14.02.29.05.42a.9.9 0 0 0 .47.63.91.91 0 0 0 .78.02.96.96 0 0 0 .5-.63c.1-.34.12-.7.05-1.05-.1-1-.59-1.92-1.34-2.6A4.08 4.08 0 0 0 7.29 6.6a4.03 4.03 0 0 0-2.76 1.65 3.97 3.97 0 0 0 .72 5.59c.7.59 1.58.94 2.5 1.01.42.02.82.02 1.25.02a9.86 9.86 0 0 0 7.18-3.43 9.13 9.13 0 0 0 2.28-6.9 6.69 6.69 0 0 0-.78-2.7c-.03-.05-.05-.1-.11-.09a.21.21 0 0 0-.12.1l-.22.36-.2.34a5.96 5.96 0 0 1-1.47 1.64 6.55 6.55 0 0 1-2.31 1.03.1.1 0 0 1-.05-.02c-.02-.02 0-.07 0-.1l.12-.2.22-.4a5.39 5.39 0 0 0 .52-1.82c0-.05.01-.11-.05-.13-.05-.02-.08 0-.11.04l-.02.02-.18.17-.37.34a5.47 5.47 0 0 1-3.3 1.25c-.41.02-.83.01-1.25.01H7.76a6.12 6.12 0 0 0-4.44 1.88 6.27 6.27 0 0 0-1.79 3.8l-.01.06Z"/>
  <path fill="#fff" d="M9.21 10.72V9.24c0-.12-.03-.15-.14-.15H7.66a1.56 1.56 0 0 0-1.41.93 1.52 1.52 0 0 0 1.06 2.1 1.56 1.56 0 0 0 1.6-.57c.17-.24.28-.53.3-.83Z"/>
</svg>
